X: 4
T: The Chicago
R: reel
M: 4/4
L: 1/8
K: Bdor
defe dBAF|A3F ABde|fdad bdad|fbba fedB|defe dBAF|A3F ABde|fbba fafe|dBcA B3c:|defg a2fg|agae cAA2|defg a2ga|fbba bafe|defg a3f|b3g a3f|=g3e f=gfe|dBcA B3c:|


Tune 840	Setting 14002

